assets/ludwig/original.svg

<svg fill="#fff" viewBox="0 0 24 24" xmlns="http://www.w3.org/2000/svg"><path d="m0 0h24v24h-24zm13.714 10.286v-6.857h-3.428v10.285h10.284v-10.284h-3.428v6.857h-3.429zm-6.857 6.857v-13.714h-3.427v17.141h17.14v-3.428h-13.713z"/></svg>

<svg xmlns="http://www.w3.org/2000/svg" fill="#fff" viewBox="0 0 24 24"><path d="M0 0h24v24H0zm13.714 10.286V3.429h-3.428v10.285H20.57V3.43h-3.428v6.857h-3.429zm-6.857 6.857V3.429H3.43V20.57h17.14v-3.428H6.857z"/></svg>
